mediafiles/Iconfinder_tor_386502_gray.svg

<?xml version="1.0" encoding="UTF-8"?>
<svg xmlns="http://www.w3.org/2000/svg" xmlns:xlink="http://www.w3.org/1999/xlink" width="409.600006pt" height="409.600006pt" viewBox="0 0 409.600006 409.600006" version="1.1">
<g id="surface1">
<path style=" stroke:none;fill-rule:nonzero;fill:rgb(38%,38%,38%);fill-opacity:1;" d="M 409.601562 204.800781 C 409.601562 317.90625 317.90625 409.601562 204.800781 409.601562 C 91.691406 409.601562 0 317.90625 0 204.800781 C 0 91.691406 91.691406 0 204.800781 0 C 317.90625 0 409.601562 91.691406 409.601562 204.800781 Z M 409.601562 204.800781 "/>
<path style=" stroke:none;fill-rule:nonzero;fill:rgb(100%,100%,100%);fill-opacity:1;" d="M 256.648438 66.800781 C 237.675781 80.46875 221.148438 95.976562 210.746094 116.578125 L 218.09375 87.402344 C 207.101562 106.988281 199.558594 127.246094 197.148438 147.050781 L 182.398438 137.179688 L 179.75 139.21875 C 193.011719 163.082031 186.078125 175.730469 179.550781 180.21875 C 166.289062 189.402344 146.90625 200.820312 137.320312 210.816406 C 118.753906 229.789062 113.445312 247.945312 115.078125 271.8125 C 116.914062 302.410156 139.152344 327.90625 168.933594 337.902344 C 181.988281 342.1875 194.023438 342.800781 207.488281 342.800781 C 229.113281 342.800781 251.347656 337.089844 267.460938 323.628906 C 284.597656 309.347656 294.800781 287.925781 294.800781 265.695312 C 294.800781 243.253906 285.414062 222.035156 268.890625 206.9375 C 260.121094 198.984375 249.097656 192.460938 237.675781 186.136719 C 232.574219 183.28125 216.867188 171.042969 222.171875 153.503906 L 210.8125 151.949219 C 226.574219 127.273438 247.082031 102.746094 272.761719 79.855469 C 252.972656 86.585938 235.4375 96.789062 222.382812 115.148438 C 230.132812 99.035156 242.777344 82.914062 256.648438 66.800781 Z M 185.457031 143.496094 L 197.007812 148.261719 C 197.007812 148.269531 197.007812 148.273438 197.007812 148.28125 L 202.085938 150.492188 L 201.972656 150.492188 L 201.972656 262.957031 C 199.71875 269.699219 197.78125 270.792969 192.402344 277.128906 C 186.082031 284.472656 185.027344 295.285156 185.027344 304.054688 C 185.027344 307.730469 186.496094 311.808594 187.925781 315.679688 C 189.558594 319.761719 190.953125 323.828125 193.195312 326.886719 C 196.085938 331.140625 199.675781 333.816406 201.972656 334.824219 L 201.972656 335.347656 C 194.125 333.675781 185.140625 330.890625 179.757812 326.277344 C 168.949219 316.894531 159.375 301.203125 158.148438 287.535156 C 157.128906 276.316406 167.515625 259.773438 182 251.410156 C 194.238281 244.269531 197.082031 236.136719 199.730469 223.082031 C 196.058594 234.503906 192.609375 244.082031 180.777344 250.199219 C 163.644531 259.175781 154.855469 274.234375 155.671875 288.515625 C 156.894531 306.875 164.25 319.308594 178.730469 329.308594 C 182.929688 332.246094 189.628906 335.308594 195.730469 337.332031 C 173.476562 332.179688 171.273438 329.78125 164.855469 322.199219 C 164.855469 321.792969 163.226562 320.769531 163.226562 320.359375 C 155.066406 310.976562 144.660156 295.0625 140.988281 280.378906 C 139.761719 275.277344 138.539062 269.773438 139.96875 264.675781 C 146.699219 240.601562 161.386719 231.21875 176.070312 221.222656 C 179.742188 218.777344 183.210938 216.324219 186.675781 213.875 C 194.835938 207.550781 196.886719 190.625 198.722656 181.242188 C 195.253906 192.867188 191.78125 207.148438 185.457031 211.835938 C 182.195312 214.488281 178.121094 216.53125 174.652344 218.773438 C 159.351562 229.175781 144.253906 238.96875 137.320312 263.855469 C 135.6875 270.179688 136.910156 274.867188 138.339844 280.988281 C 142.210938 296.285156 152.621094 312.605469 161.1875 322.398438 C 161.1875 322.398438 162.609375 323.824219 162.609375 324.027344 C 166.496094 328.515625 171.507812 331.6875 177.398438 334.234375 C 172.273438 332.8125 167.320312 331.007812 162.617188 328.726562 C 138.753906 317.097656 122.835938 292.210938 121.816406 271.8125 C 119.570312 230.402344 139.570312 218.367188 157.929688 203.269531 C 168.332031 194.703125 182.601562 190.617188 190.964844 175.523438 C 192.597656 172.261719 193.421875 164.917969 191.585938 157.371094 C 190.769531 154.71875 186.886719 145.539062 185.457031 143.496094 Z M 202.800781 150.804688 L 208.414062 153.246094 C 208.484375 155.796875 208.480469 158.292969 208.460938 160.726562 C 208.441406 159.886719 208.4375 159.03125 208.460938 158.160156 C 207.855469 169.0625 207.6875 173.085938 209.726562 181.039062 C 211.972656 189.8125 223.398438 202.453125 228.089844 216.933594 C 237.066406 244.675781 234.828125 280.992188 228.300781 309.34375 C 227.148438 314.039062 223.964844 319.71875 219.714844 324.914062 C 221.210938 322.175781 222.503906 319.195312 223.402344 316.070312 C 229.929688 293.226562 232.578125 282.621094 229.519531 257.328125 C 229.109375 254.878906 228.085938 246.511719 224.210938 237.535156 C 218.5 223.867188 210.347656 210.820312 209.328125 208.167969 C 207.492188 203.886719 205.039062 185.320312 204.628906 172.675781 C 204.835938 183.28125 205.652344 203.066406 208.507812 210.816406 C 209.324219 213.46875 216.871094 225.101562 222.171875 239.175781 C 225.84375 248.96875 226.65625 257.945312 227.269531 260.59375 C 229.71875 272.222656 226.664062 291.800781 222.582031 310.363281 C 220.902344 318.59375 215.898438 328.472656 209.746094 334.441406 C 209.671875 334.5 209.59375 334.558594 209.519531 334.613281 C 213.34375 330.742188 217.070312 324.265625 219.332031 316.472656 C 222.394531 305.660156 223.609375 291.828125 223.402344 283.054688 C 223.195312 277.957031 220.945312 266.914062 216.863281 256.917969 C 214.621094 251.410156 211.171875 245.898438 208.925781 242.023438 C 206.480469 238.144531 206.464844 229.785156 205.238281 219.992188 C 205.445312 230.601562 204.410156 235.921875 207.058594 243.472656 C 208.691406 247.960938 214.203125 254.078125 215.835938 259.996094 C 218.078125 267.953125 220.519531 276.722656 220.3125 282.027344 C 220.3125 288.148438 219.933594 299.574219 217.285156 311.8125 C 215.300781 321.742188 210.769531 330.28125 203.191406 335.242188 C 203.0625 335.328125 202.933594 335.417969 202.800781 335.5 L 202.800781 335.128906 C 202.867188 335.148438 202.9375 335.179688 203 335.195312 L 203.046875 335.195312 C 203.09375 335.207031 203.148438 335.234375 203.191406 335.242188 L 203.191406 335.003906 C 207.148438 330.59375 209.527344 326.210938 210.328125 321.796875 C 211.347656 316.496094 211.582031 311.179688 212.195312 304.855469 C 212.808594 299.550781 212.367188 292.40625 210.9375 285.066406 C 208.898438 275.886719 205.457031 266.519531 204.03125 259.996094 C 204.234375 267.136719 207.09375 276.28125 208.316406 285.664062 C 209.339844 292.601562 208.902344 299.574219 208.699219 305.695312 C 208.496094 312.78125 206.132812 325.46875 202.90625 331.640625 C 202.867188 331.625 202.835938 331.609375 202.800781 331.59375 Z M 201.972656 263.578125 L 201.972656 331.175781 C 199.597656 329.886719 198.460938 328.371094 196.703125 326.085938 C 194.253906 322.617188 192.589844 319.152344 190.957031 315.070312 C 189.734375 312.011719 188.300781 308.515625 187.6875 304.4375 C 186.871094 298.316406 187.097656 288.738281 194.035156 278.949219 C 198.921875 271.804688 200.34375 270.726562 201.972656 263.578125 Z M 201.972656 263.578125 "/>
</g>
</svg>

<?xml version="1.0" encoding="UTF-8"?>
<svg width="409.6pt" height="409.6pt" version="1.1" viewBox="0 0 409.6 409.6" xmlns="http://www.w3.org/2000/svg">
<g>
<path d="m409.6 204.8c0 113.11-91.695 204.8-204.8 204.8-113.11 0-204.8-91.695-204.8-204.8 0-113.11 91.691-204.8 204.8-204.8 113.11 0 204.8 91.691 204.8 204.8z" fill="#606060"/>
<path d="m256.65 66.801c-18.973 13.668-35.5 29.176-45.902 49.777l7.3477-29.176c-10.992 19.586-18.535 39.844-20.945 59.648l-14.75-9.8711-2.6484 2.0391c13.262 23.863 6.3281 36.512-0.19922 41-13.262 9.1836-32.645 20.602-42.23 30.598-18.566 18.973-23.875 37.129-22.242 60.996 1.8359 30.598 24.074 56.094 53.855 66.09 13.055 4.2852 25.09 4.8984 38.555 4.8984 21.625 0 43.859-5.7109 59.973-19.172 17.137-14.281 27.34-35.703 27.34-57.934 0-22.441-9.3867-43.66-25.91-58.758-8.7695-7.9531-19.793-14.477-31.215-20.801-5.1016-2.8555-20.809-15.094-15.504-32.633l-11.359-1.5547c15.762-24.676 36.27-49.203 61.949-72.094-19.789 6.7305-37.324 16.934-50.379 35.293 7.75-16.113 20.395-32.234 34.266-48.348zm-71.191 76.695 11.551 4.7656v0.019531l5.0781 2.2109h-0.11328v112.46c-2.2539 6.7422-4.1914 7.8359-9.5703 14.172-6.3203 7.3438-7.375 18.156-7.375 26.926 0 3.6758 1.4688 7.7539 2.8984 11.625 1.6328 4.082 3.0273 8.1484 5.2695 11.207 2.8906 4.2539 6.4805 6.9297 8.7773 7.9375v0.52344c-7.8477-1.6719-16.832-4.457-22.215-9.0703-10.809-9.3828-20.383-25.074-21.609-38.742-1.0195-11.219 9.3672-27.762 23.852-36.125 12.238-7.1406 15.082-15.273 17.73-28.328-3.6719 11.422-7.1211 21-18.953 27.117-17.133 8.9766-25.922 24.035-25.105 38.316 1.2227 18.359 8.5781 30.793 23.059 40.793 4.1992 2.9375 10.898 6 17 8.0234-22.254-5.1523-24.457-7.5508-30.875-15.133 0-0.40625-1.6289-1.4297-1.6289-1.8398-8.1602-9.3828-18.566-25.297-22.238-39.98-1.2266-5.1016-2.4492-10.605-1.0195-15.703 6.7305-24.074 21.418-33.457 36.102-43.453 3.6719-2.4453 7.1406-4.8984 10.605-7.3477 8.1602-6.3242 10.211-23.25 12.047-32.633-3.4688 11.625-6.9414 25.906-13.266 30.594-3.2617 2.6523-7.3359 4.6953-10.805 6.9375-15.301 10.402-30.398 20.195-37.332 45.082-1.6328 6.3242-0.41016 11.012 1.0195 17.133 3.8711 15.297 14.281 31.617 22.848 41.41 0 0 1.4219 1.4258 1.4219 1.6289 3.8867 4.4883 8.8984 7.6602 14.789 10.207-5.125-1.4219-10.078-3.2266-14.781-5.5078-23.863-11.629-39.781-36.516-40.801-56.914-2.2461-41.41 17.754-53.445 36.113-68.543 10.402-8.5664 24.672-12.652 33.035-27.746 1.6328-3.2617 2.457-10.605 0.62109-18.152-0.81641-2.6523-4.6992-11.832-6.1289-13.875zm17.344 7.3086 5.6133 2.4414c0.070313 2.5508 0.066407 5.0469 0.046876 7.4805-0.019532-0.83984-0.023438-1.6953 0-2.5664-0.60547 10.902-0.77344 14.926 1.2656 22.879 2.2461 8.7734 13.672 21.414 18.363 35.895 8.9766 27.742 6.7383 64.059 0.21094 92.41-1.1523 4.6953-4.3359 10.375-8.5859 15.57 1.4961-2.7383 2.7891-5.7188 3.6875-8.8438 6.5273-22.844 9.1758-33.449 6.1172-58.742-0.41016-2.4492-1.4336-10.816-5.3086-19.793-5.7109-13.668-13.863-26.715-14.883-29.367-1.8359-4.2812-4.2891-22.848-4.6992-35.492 0.20703 10.605 1.0234 30.391 3.8789 38.141 0.81641 2.6523 8.3633 14.285 13.664 28.359 3.6719 9.793 4.4844 18.77 5.0977 21.418 2.4492 11.629-0.60547 31.207-4.6875 49.77-1.6797 8.2305-6.6836 18.109-12.836 24.078-0.074219 0.058594-0.15234 0.11719-0.22656 0.17188 3.8242-3.8711 7.5508-10.348 9.8125-18.141 3.0625-10.812 4.2773-24.645 4.0703-33.418-0.20703-5.0977-2.457-16.141-6.5391-26.137-2.2422-5.5078-5.6914-11.02-7.9375-14.895-2.4453-3.8789-2.4609-12.238-3.6875-22.031 0.20703 10.609-0.82812 15.93 1.8203 23.48 1.6328 4.4883 7.1445 10.605 8.7773 16.523 2.2422 7.957 4.6836 16.727 4.4766 22.031 0 6.1211-0.37891 17.547-3.0273 29.785-1.9844 9.9297-6.5156 18.469-14.094 23.43-0.12891 0.085937-0.25781 0.17578-0.39062 0.25781v-0.37109c0.066407 0.019532 0.13672 0.050782 0.19922 0.066406h0.046875c0.046875 0.011719 0.10156 0.039063 0.14453 0.046876v-0.23828c3.957-4.4102 6.3359-8.793 7.1367-13.207 1.0195-5.3008 1.2539-10.617 1.8672-16.941 0.61328-5.3047 0.17188-12.449-1.2578-19.789-2.0391-9.1797-5.4805-18.547-6.9062-25.07 0.20312 7.1406 3.0625 16.285 4.2852 25.668 1.0234 6.9375 0.58594 13.91 0.38281 20.031-0.20312 7.0859-2.5664 19.773-5.793 25.945-0.039062-0.015625-0.070312-0.03125-0.10547-0.046875zm-0.82812 112.77v67.598c-2.375-1.2891-3.5117-2.8047-5.2695-5.0898-2.4492-3.4688-4.1133-6.9336-5.7461-11.016-1.2227-3.0586-2.6562-6.5547-3.2695-10.633-0.81641-6.1211-0.58984-15.699 6.3477-25.488 4.8867-7.1445 6.3086-8.2227 7.9375-15.371z" fill="#fff"/>
</g>
</svg>
